img/nova-poshta-logo.svg

<?xml version="1.0" encoding="utf-8"?>
<!-- Generator: Adobe Illustrator 23.1.1, SVG Export Plug-In . SVG Version: 6.00 Build 0)  -->
<svg version="1.1" id="Layer_1" xmlns="http://www.w3.org/2000/svg" xmlns:xlink="http://www.w3.org/1999/xlink" x="0px" y="0px"
	 viewBox="0 0 283.46 48.25" style="enable-background:new 0 0 283.46 48.25;" xml:space="preserve">
<g>
	<path style="fill:#DA292B;" d="M27.31,34.18v-6.74h-5.73v6.74H17.2l5.32,5.32c1.07,1.07,2.8,1.07,3.87,0l5.32-5.32H27.31z
		 M14.33,31.31v-14.5l-5.32,5.32c-1.07,1.07-1.07,2.8,0,3.87L14.33,31.31z M21.58,13.95v6.74h5.73v-6.74h4.38l-5.32-5.32
		c-1.07-1.07-2.8-1.07-3.87,0l-5.32,5.32H21.58z M39.87,22.13l-5.32-5.32v14.5L39.87,26C40.94,24.93,40.94,23.2,39.87,22.13z"/>
	<g>
		<path style="fill:#DA292B;" d="M65.49,21.33h-7.22v-5.05c0-1.33-0.98-2.31-2.31-2.31H53.8h-1.3h-2.89v5.34h2.89v14.87h5.78v-7.36
			h7.22v7.36h5.78V13.96h-5.78V21.33z"/>
		<path style="fill:#DA292B;" d="M84.55,13.67c-6.09,0-10.54,4.39-10.54,10.4s4.45,10.4,10.54,10.4c6.09,0,10.54-4.39,10.54-10.4
			S90.64,13.67,84.55,13.67z M84.55,28.83c-2.74,0-4.76-2.02-4.76-4.76s2.02-4.76,4.76-4.76c2.74,0,4.76,2.02,4.76,4.76
			S87.29,28.83,84.55,28.83z"/>
		<path style="fill:#DA292B;" d="M112.96,23.48c1.43-0.87,2.32-2.36,2.32-4.15c0-3.12-2.02-5.37-6.04-5.37H97.83v20.21h11.41
			c4.22,0,6.67-2.45,6.67-5.83C115.91,26.18,114.76,24.42,112.96,23.48z M103.2,18.47h4.3c1.36,0,2.14,0.66,2.14,1.79
			s-0.78,1.79-2.14,1.79h-4.3V18.47z M107.91,29.73h-4.71v-3.75h4.71c1.44,0,2.25,0.69,2.25,1.88
			C110.16,29.04,109.35,29.73,107.91,29.73z"/>
		<path style="fill:#DA292B;" d="M124.74,13.96l-7.97,20.21h6.15l1.28-3.72h8.12l1.28,3.72h6.27l-7.97-20.21H124.74z M125.77,25.92
			l2.28-6.61h0.44l2.28,6.61H125.77z"/>
		<path style="fill:#DA292B;" d="M167.48,13.96h-1.53h-1.93h-7.22h-3.23h-1.24h-1.3h-2.89v5.34h2.89v14.87h5.78V19.3h7.22v14.87
			h5.78v-17.9C169.79,14.8,168.95,13.96,167.48,13.96z"/>
		<path style="fill:#DA292B;" d="M183.07,13.67c-6.09,0-10.54,4.39-10.54,10.4s4.45,10.4,10.54,10.4c6.09,0,10.54-4.39,10.54-10.4
			S189.17,13.67,183.07,13.67z M183.07,28.83c-2.74,0-4.76-2.02-4.76-4.76s2.02-4.76,4.76-4.76c2.74,0,4.76,2.02,4.76,4.76
			S185.82,28.83,183.07,28.83z"/>
		<polygon style="fill:#DA292B;" points="218.88,28.83 213.39,28.83 213.39,13.96 207.62,13.96 207.62,28.83 202.13,28.83 
			202.13,13.96 196.36,13.96 196.36,34.18 199.07,34.18 202.13,34.18 218.88,34.18 222.46,34.18 224.66,34.18 224.66,13.96 
			218.88,13.96 		"/>
		<polygon style="fill:#DA292B;" points="247.03,19.3 247.03,13.96 227.4,13.96 227.4,19.3 234.33,19.3 234.33,34.18 240.1,34.18 
			240.1,19.3 		"/>
		<path style="fill:#DA292B;" d="M262.14,34.18h6.27l-7.97-20.21h-7.16l-7.97,20.21h6.15l1.28-3.72h8.12L262.14,34.18z M254.3,25.92
			l2.28-6.61h0.44l2.28,6.61H254.3z"/>
	</g>
	<rect y="0" style="fill:none;" width="283.46" height="48.25"/>
</g>
</svg>

<svg width="284" height="49" viewBox="0 0 284 49" fill="none" xmlns="http://www.w3.org/2000/svg">
<path d="M283.46 0H0V48.25H283.46V0Z" fill="#DA292B"/>
<path d="M27.31 34.18V27.44H21.58V34.18H17.2L22.52 39.5C23.59 40.57 25.32 40.57 26.39 39.5L31.71 34.18H27.31ZM14.33 31.31V16.81L9.01002 22.13C7.94002 23.2 7.94002 24.93 9.01002 26L14.33 31.31ZM21.58 13.95V20.69H27.31V13.95H31.69L26.37 8.63C25.3 7.56 23.57 7.56 22.5 8.63L17.18 13.95H21.58ZM39.87 22.13L34.55 16.81V31.31L39.87 26C40.94 24.93 40.94 23.2 39.87 22.13Z" fill="white"/>
<path d="M65.49 21.33H58.27V16.28C58.27 14.95 57.29 13.97 55.96 13.97H53.8H52.5H49.61V19.31H52.5V34.18H58.28V26.82H65.5V34.18H71.28V13.96H65.5V21.33H65.49Z" fill="white"/>
<path d="M84.55 13.67C78.46 13.67 74.01 18.06 74.01 24.07C74.01 30.08 78.46 34.47 84.55 34.47C90.64 34.47 95.09 30.08 95.09 24.07C95.09 18.06 90.64 13.67 84.55 13.67ZM84.55 28.83C81.81 28.83 79.79 26.81 79.79 24.07C79.79 21.33 81.81 19.31 84.55 19.31C87.29 19.31 89.31 21.33 89.31 24.07C89.31 26.81 87.29 28.83 84.55 28.83Z" fill="white"/>
<path d="M112.96 23.48C114.39 22.61 115.28 21.12 115.28 19.33C115.28 16.21 113.26 13.96 109.24 13.96H97.83V34.17H109.24C113.46 34.17 115.91 31.72 115.91 28.34C115.91 26.18 114.76 24.42 112.96 23.48ZM103.2 18.47H107.5C108.86 18.47 109.64 19.13 109.64 20.26C109.64 21.39 108.86 22.05 107.5 22.05H103.2V18.47ZM107.91 29.73H103.2V25.98H107.91C109.35 25.98 110.16 26.67 110.16 27.86C110.16 29.04 109.35 29.73 107.91 29.73Z" fill="white"/>
<path d="M124.74 13.96L116.77 34.17H122.92L124.2 30.45H132.32L133.6 34.17H139.87L131.9 13.96H124.74ZM125.77 25.92L128.05 19.31H128.49L130.77 25.92H125.77Z" fill="white"/>
<path d="M167.48 13.96H165.95H164.02H156.8H153.57H152.33H151.03H148.14V19.3H151.03V34.17H156.81V19.3H164.03V34.17H169.81V16.27C169.79 14.8 168.95 13.96 167.48 13.96Z" fill="white"/>
<path d="M183.07 13.67C176.98 13.67 172.53 18.06 172.53 24.07C172.53 30.08 176.98 34.47 183.07 34.47C189.16 34.47 193.61 30.08 193.61 24.07C193.61 18.06 189.17 13.67 183.07 13.67ZM183.07 28.83C180.33 28.83 178.31 26.81 178.31 24.07C178.31 21.33 180.33 19.31 183.07 19.31C185.81 19.31 187.83 21.33 187.83 24.07C187.83 26.81 185.82 28.83 183.07 28.83Z" fill="white"/>
<path d="M218.88 28.83H213.39V13.96H207.62V28.83H202.13V13.96H196.36V34.18H199.07H202.13H218.88H222.46H224.66V13.96H218.88V28.83Z" fill="white"/>
<path d="M247.03 19.3V13.96H227.4V19.3H234.33V34.18H240.1V19.3H247.03Z" fill="white"/>
<path d="M262.14 34.18H268.41L260.44 13.97H253.28L245.31 34.18H251.46L252.74 30.46H260.86L262.14 34.18ZM254.3 25.92L256.58 19.31H257.02L259.3 25.92H254.3Z" fill="white"/>
</svg>
